src/data/img/tls.svg

<svg xmlns="http://www.w3.org/2000/svg" height="24" width="24"><path d="M12 2a6 6 0 0 0-6 6v6H4v8h16v-8h-2V8a6 6 0 0 0-6-6zm0 2a4 4 0 0 1 4 4v6H8V8a4 4 0 0 1 4-4z" fill="#000300"/></svg>

<?xml version="1.0" encoding="UTF-8" standalone="no"?>
<svg
   xmlns:dc="http://purl.org/dc/elements/1.1/"
   xmlns:cc="http://creativecommons.org/ns#"
   xmlns:rdf="http://www.w3.org/1999/02/22-rdf-syntax-ns#"
   xmlns:svg="http://www.w3.org/2000/svg"
   xmlns="http://www.w3.org/2000/svg"
   id="svg2"
   height="24"
   width="24"
   version="1.1">
  <metadata
     id="metadata10">
    <rdf:RDF>
      <cc:Work
         rdf:about="">
        <dc:format>image/svg+xml</dc:format>
        <dc:type
           rdf:resource="http://purl.org/dc/dcmitype/StillImage" />
        <dc:title></dc:title>
      </cc:Work>
    </rdf:RDF>
  </metadata>
  <defs
     id="defs8" />
  <path
     id="path4136"
     d="M 12 2 A 6 6 0 0 0 6 8 L 6 14 L 4 14 L 4 22 L 20 22 L 20 14 L 18 14 L 18 8 A 6 6 0 0 0 12 2 z M 12 4 A 4 4 0 0 1 16 8 L 16 14 L 8 14 L 8 8 A 4 4 0 0 1 12 4 z "
     style="fill:#000300;fill-opacity:1;stroke:none;stroke-width:0;stroke-miterlimit:4;stroke-dasharray:none;stroke-opacity:1" />
</svg>
